dist/images/footer/submit.svg

<svg width="18" height="20" viewBox="0 0 18 20" fill="none" xmlns="http://www.w3.org/2000/svg">
<g clip-path="url(#clip0_15_129)">
<path d="M11.5436 4.5201L10.7769 5.28674C10.5913 5.4724 10.5943 5.77439 10.7837 5.95627L13.9367 8.98431H0.46875C0.209883 8.98431 0 9.19419 0 9.45306V10.5468C0 10.8057 0.209883 11.0156 0.46875 11.0156H13.9367L10.7837 14.0436C10.5943 14.2255 10.5913 14.5275 10.777 14.7131L11.5436 15.4798C11.7266 15.6628 12.0234 15.6628 12.2065 15.4798L17.3549 10.3314C17.538 10.1483 17.538 9.85154 17.3549 9.66845L12.2064 4.5201C12.0234 4.33705 11.7266 4.33705 11.5436 4.5201Z" fill="white"/>
</g>
<defs>
<clipPath id="clip0_15_129">
<rect width="17.5" height="20" fill="white"/>
</clipPath>
</defs>
</svg>

<svg width="18" height="20" fill="none" xmlns="http://www.w3.org/2000/svg"><g clip-path="url(#clip0_15_129)"><path d="M11.544 4.52l-.767.767a.469.469 0 00.007.67l3.153 3.027H.469a.469.469 0 00-.469.47v1.093c0 .259.21.469.469.469h13.468l-3.153 3.028a.469.469 0 00-.007.67l.767.766c.183.183.48.183.662 0l5.149-5.149a.469.469 0 000-.663L12.206 4.52a.469.469 0 00-.662 0z" fill="#fff"/></g><defs><clipPath id="clip0_15_129"><path fill="#fff" d="M0 0h17.5v20H0z"/></clipPath></defs></svg>
